assets/about/leftTop.svg

<svg width="161" height="185" viewBox="0 0 161 185" fill="none" xmlns="http://www.w3.org/2000/svg">
<mask id="mask0_1_261" style="mask-type:alpha" maskUnits="userSpaceOnUse" x="0" y="1" width="159" height="181">
<path d="M72.0181 1.28525C69.5717 1.43624 67.1384 1.80766 64.7602 2.41272C62.5887 2.96489 60.438 3.60853 58.2731 4.19156C38.1091 9.43107 22.7105 21.0993 11.7758 38.8843C1.8989 54.9445 -1.45571 72.3504 0.560799 90.9158C2.31232 107.039 9.54711 120.715 19.8396 132.898C28.9931 143.733 39.7804 152.702 51.6078 160.491C63.8762 168.57 76.9406 174.89 90.9506 179.268C94.4096 180.348 97.9633 181.003 101.512 181.68C102.271 181.825 103.097 181.964 103.62 181.187C104.05 180.55 103.881 179.892 103.595 179.285C103.288 178.636 102.857 178.053 102.399 177.499C100.046 174.657 98.3272 171.45 96.8802 168.076C95.176 164.098 95.7873 159.712 101.409 158.248C116.071 154.429 128.22 146.324 138.157 134.991C152.457 118.681 159.14 99.4925 158.008 77.8655C156.807 54.949 147.525 35.6419 130.201 20.546C115.076 7.36789 97.4993 1.10229 77.8939 1.10229C75.9543 1.10229 73.9972 1.16401 72.0181 1.28525Z" fill="white"/>
</mask>
<g mask="url(#mask0_1_261)">
<path d="M163.627 -4.4082L163.624 76.5596L140.975 76.3884L140.744 76.3873C135.388 76.3873 130.13 77.8399 125.525 80.5952L119.998 83.9049L114.238 77.4001C113.774 76.8788 113.255 76.4049 112.691 75.9905C110.559 74.4222 107.946 73.7818 105.335 74.1852C102.723 74.5886 100.422 75.9872 98.859 78.1242L95.246 83.0617L90.3707 65.2183C89.5153 62.0827 87.0216 59.6801 83.8572 58.9494C81.568 58.4248 79.2107 58.8193 77.2184 60.0702C75.2261 61.3201 73.8407 63.273 73.314 65.5677L68.9171 84.7359L66.2101 72.5618C65.4305 69.0647 62.8203 66.2521 59.3997 65.2238C56.8653 64.46 54.1902 64.7311 51.8636 65.9876C49.536 67.2429 47.835 69.3303 47.0741 71.8685L43.8482 82.633L41.7074 76.1426C40.3627 72.0724 36.5881 69.3391 32.3121 69.3391H26.3879C23.3522 69.3391 20.8904 71.8057 20.8904 74.8498C20.8904 77.8939 23.3522 80.3604 26.3879 80.3604H31.5171L37.7866 99.3633C38.9301 102.821 42.6695 104.708 46.1242 103.561C48.1638 102.885 49.7504 101.247 50.3672 99.1859L56.3936 79.0786L62.4112 106.136C62.795 107.86 63.8241 109.331 65.3129 110.279C66.3827 110.961 67.5987 111.311 68.8379 111.311C69.3195 111.311 69.8066 111.259 70.2881 111.151C72.7489 110.6 74.7082 108.652 75.2799 106.179L82.0727 76.5702L85.8451 90.3733C86.4642 92.6447 87.9309 94.5382 89.9716 95.7053C92.0123 96.8703 94.384 97.169 96.6501 96.5496C98.5566 96.0272 100.251 94.8578 101.421 93.2597L106.921 85.7421L111.776 91.223C115.28 95.1741 121.105 96.0757 125.634 93.3666L131.162 90.058C134.102 88.2979 137.41 87.3854 140.89 87.4096L163.624 87.5809L163.627 187.304H-5.49771V-4.4082H163.627Z" fill="#EBEBEB"/>
</g>
</svg>

<svg xmlns="http://www.w3.org/2000/svg" width="161" height="185" fill="none" xmlns:v="https://vecta.io/nano"><mask id="A" maskUnits="userSpaceOnUse" x="0" y="1" width="159" height="181" mask-type="alpha"><path d="M72.018 1.285a39.25 39.25 0 0 0-7.258 1.127l-6.487 1.779c-20.164 5.24-35.563 16.908-46.497 34.693C1.899 54.945-1.456 72.35.561 90.916c1.752 16.123 8.986 29.799 19.279 41.982 9.153 10.835 19.941 19.804 31.768 27.593 12.268 8.079 25.333 14.399 39.343 18.777 3.459 1.08 7.013 1.735 10.561 2.412.759.145 1.585.284 2.108-.493.43-.637.261-1.295-.025-1.902-.307-.649-.738-1.232-1.196-1.786-2.353-2.842-4.072-6.049-5.519-9.423-1.704-3.978-1.093-8.364 4.529-9.828 14.662-3.819 26.811-11.924 36.748-23.257 14.3-16.31 20.983-35.499 19.851-57.126-1.201-22.916-10.483-42.224-27.807-57.319C115.076 7.368 97.499 1.102 77.894 1.102c-1.94 0-3.897.062-5.876.183z" fill="#fff"/></mask><g mask="url(#A)"><path d="M163.627-4.408l-.003 80.968-22.649-.171-.231-.001c-5.356 0-10.614 1.453-15.219 4.208l-5.527 3.31-5.76-6.505c-.464-.521-.983-.995-1.547-1.41-2.132-1.568-4.745-2.209-7.356-1.805a9.83 9.83 0 0 0-6.476 3.939l-3.613 4.938-4.875-17.843c-.855-3.136-3.349-5.538-6.513-6.269a8.73 8.73 0 0 0-6.639 1.121c-1.992 1.25-3.378 3.203-3.904 5.498l-4.397 19.168-2.707-12.174a9.92 9.92 0 0 0-6.81-7.338c-2.534-.764-5.21-.493-7.536.764a9.85 9.85 0 0 0-4.789 5.881l-3.226 10.764-2.141-6.49c-1.345-4.07-5.119-6.803-9.395-6.803h-5.924c-3.036 0-5.497 2.467-5.497 5.511s2.462 5.511 5.497 5.511h5.129l6.27 19.003c1.144 3.458 4.883 5.345 8.338 4.198a6.61 6.61 0 0 0 4.243-4.375l6.026-20.107 6.018 27.057a6.57 6.57 0 0 0 2.902 4.143c1.07.682 2.286 1.032 3.525 1.032a6.63 6.63 0 0 0 1.45-.16c2.461-.551 4.42-2.499 4.992-4.972l6.793-29.609 3.772 13.803c.619 2.271 2.086 4.165 4.126 5.332s4.412 1.464 6.679.844a8.83 8.83 0 0 0 4.771-3.29l5.5-7.518 4.855 5.481c3.504 3.951 9.329 4.853 13.858 2.144l5.528-3.309a18.53 18.53 0 0 1 9.728-2.648l22.734.171.003 99.723H-5.498V-4.408h169.125z" fill="#ebebeb"/></g></svg>
